X:1
T:March from Scipio
T:March from Scipio
T:HANDEL. 
C:Handel
%%score { ( 1 3 ) | ( 2 4 ) }
L:1/8
Q:1/4=110
M:4/4
K:D
V:1 treble nm="Piano" snm="Pno."
V:3 treble 
V:2 bass 
V:4 bass 
V:1
!mf!"^Alla marcia.\n" (D>E) | !^![DF]4 !^![EA]4 | !^!!2!!5![Fd]6 !1!!3![CE-]2 | %3
 !2!F>!3!G!4!A>!5!B [DA]2 !1!!3![EG]>!2!!4![DF] | !1!!3![CE]6 ([CA]2 | %5
!<(! !3!B>!4!c !5!d2 !2!!4![Ac]2 !1!!5![CB]2!<)! | !5!A4 !5!G4) | %7
 !4![DF]>ED>G !1!!3![DF]2 !2!!4![CE]>!3!D | !5!D6!p! (!5![Af]2 | !4!e2 !3!d2 !2!cd !4!e2 | %10
 !5!A4 !4!G4) | (!1!!3![DF]2 GF E2 D2 | A6) ([Ace]2 | B>AB>c [FB]2 [FAB]2 | B6) ([Ec]2 | %15
 d2 cB [Ac]2 [^GB]>A | A6) !5![C=G]2 |"_cresc." ([DF]>EF>G) [FA]2 E2 | [DG]4 !4!F4 | %19
 !5!B2 A2 !2!!5![CG]2 !1!!4![DF]2 | !2!!3![CE]6!f! [CA]2 | (B>c d2) [Ac]2 [CB]2 | A4 G4 | %23
 ([DF]>E[B,D]>G [A,DF]2 [CE]>D | D6)!mf! D>E | !^![DF]4 !^![EA]4 | !^![Fd]6 ([CE]2 | %27
 F>G A>B [DA]2 [EG]>[DF] | [CE]4- [CE]2)"_cresc." ([CA]2 | B>c d2 [Ac]2 [CB]2 | A4 G4) | %31
!f! ([DF]>E"_rit.          -         -         -      -"[Q:1/4=105][B,D]>G[Q:1/4=100] [DF]2[Q:1/4=95] [CE]>[Q:1/4=90]D | %32
[Q:1/4=85] D6) |] %33
V:2
 z2 | !^!!2!D,4 !^!!3!C,4 | !^!!4!B,,6 A,,2 | !2!D,2 !1!E,2 !3!F,2 !2!G,2 | %4
 !1!A,2 !2!E,2 !5!A,,2 F,2 | B,,2 B,2 A,2 G,2 | F,4 E,2!>(! A,2!>)! | %7
 [D,A,]2 [G,B,]2 A,2 [A,,G,]2 | F,6 (D2 | C2 B,2 A,2 [G,C]2 | F,4 E,2) A,2 | (D,2 D,2 C,2 B,,2 | %12
 A,,2 B,,2 C,2) (A,,2 | D,2 C,2 D,2 B,,2 | E,2 F,2 ^G,2) (A,2 | F,2 D,2 E,2 E,,2 | %16
 A,,2 B,,2 C,2) A,,2 | (!2!D,>!3!C,!2!D,>!1!E,) !2!D,2 !3!C,2 | !4!B,,4 !5!A,,4 | G,2 F,2 E,2 D,2 | %20
 A,2 E,2 A,,2 F,2 | B,,2 B,2 A,2 G,2 | F,4 E,2 A,2 | D,2 G,,2 A,,2 [A,,G,]2 | F,6 z2 | %25
 !^!D,4 !^!C,4 | !^!B,,6 A,,2 | D,2 E,2 F,2 G,2 | A,2 E,2 A,,2 F,2 | B,,2 B,2 A,2 G,2 | %30
 F,4 E,2 A,2 | D,2 G,,2 A,,2 [A,,G,]2 |!ped! [D,F,]2 !>!A,,2 !>!D,,2!ped-up! |] %33
V:3
 x2 | x8 | x8 | !1!D2 C2 x4 | x8 | !1!D>!1!E !2!F>!1!G x4 | D2 !1!D4 !2!C2 | x8 | x8 | A4 A4 | %10
 !2!D2 !2!D4 !1!C2 | x8 | (!2!C2 !1!D2 E2) x2 | !1!F2 !1!E2 x4 | %14
 (!1!!3![E^G]2 !1!!2![^DF]2 E2) x2 | [FA]4 E2 !1!D2 | (!2!C2 D2 E2) x2 | A,4 C4 | x4 D2 C2 | %19
 D4 x4 | x8 | (D>E F>G) x4 | D2 D4 C2 | x8 | x8 | x8 | x8 | D2 C2 x4 | x8 | D>E F>G x4 | D2 D4 C2 | %31
 x8 | x6 |] %33
V:4
 x2 | x8 | x8 | x8 | x8 | x8 | x8 | x8 | D,2 A,,2 D,,2 x2 | x8 | x8 | x8 | x8 | x8 | x8 | x8 | x8 | %17
 x8 | x8 | x8 | x8 | x8 | x8 | x8 | D,2 A,,2 D,,2 x2 | x8 | x8 | x8 | x8 | x8 | x8 | x8 | x6 |] %33

